!!!!SEGMENT: pl-cz--iii-589--003_rygall-ignacy--gentes-laudate-mariam-huic-ergo-corde-pio.krn
!!!cenid: 17xx:1104
!!!COM: Rygall, Ignacy
!!!COM-rismid: pe30110281
!!!CDT: <1750->1799
!!!CNT:
!!!OPR: Gentes laudate Mariam
!!!OTL: Huic ergo corde pio
!!!OMV: 003
!!!PDT:
!!!AGN:
!!!SMS-siglum: PL-CZ
!!!SMS-shelfmark: III-589
!!!SMS-shelfwork: 001-003 M
!!!SMS-variant:
!!!SMS-altvar:
!!!NIFC-rismid: 300001124
!!!URL-scan: http://repozytorium.nifc.pl/skany/pl-cz-nut--iii-589
!!!ONB-nifc: UWAGA: części Gentes laudate Mariam: Euntre (+ Gentes laudate Mariam (Basso solo)), O beatam matrem (Allegro molto), Huic ergo corde pio (Andantino), Coro – Audi te petentes, O clemens o pia (Andantino)
**kern	**kern	**kern	**kern	**dynam	**kern	**dynam	**kern	**kern	**kern	**kern	**kern	**text
*part7	*part7	*part6	*part6	*part6	*part5	*part5	*part4	*part4	*part3	*part2	*part1	*part1
*staff10	*staff9	*staff8	*staff7	*	*staff6	*	*staff5	*staff4	*staff3	*staff2	*staff1	*staff1
*Iempty	*Iempty	*Iempty	*Iempty	*	*Iempty	*	*Iempty	*Iempty	*Iempty	*Iempty	*Iempty	*
*I"Clavi Cembalo	*	*I"Viola	*	*	*I"Violino Secondo	*	*I"Violino Primo	*	*I"Canto 2do	*I"Canto 1mo	*I"Basso Voce	*
*I'Cl-lo	*	*I'V-la	*	*	*I'V-no II	*	*I'V-no I	*	*I'C. II	*I'C. I	*I'B.	*
*clefF4	*clefG2	*clefC3	*clefF4	*	*clefG2	*	*clefG2	*clefC1	*clefC1	*clefC1	*clefF4	*
*k[f#c#]	*k[f#c#]	*k[f#c#]	*k[f#c#]	*	*k[f#c#]	*	*k[f#c#]	*k[f#c#]	*k[f#c#]	*k[f#c#]	*k[f#c#]	*
*G:	*G:	*G:	*G:	*	*G:	*	*G:	*G:	*G:	*G:	*G:	*
*M3/8	*M3/8	*M3/8	*M3/8	*	*M3/8	*	*M3/8	*M3/8	*M3/8	*M3/8	*M3/8	*
=1	=1	=1	=1	=1	=1	=1	=1	=1	=1	=1	=1	=1
!	!LO:TX:b:t=andantino	!	!	!	!LO:TX:t=P:problem:w partii V II nie ma znaków przy kluczu	!	!	!	!	!	!	!
!	!LO:TX:t=P:problem:w partii Cembalo nie ma znaków przy kluczu	!	!	!	!LO:TX:a:t=andantino	!	!	!LO:TX:t=P:problem:w partii V I nie ma znaków przy kluczu	!LO:TX:a:t=Entre con Aria Tace	!LO:TX:a:t=Entre con Aria Tace	!LO:TX:a:t=Andantino	!
(4B\	4.ryy	(4B/	4.ryy	pp	16d'/LL	p	4dd\	4.ryy	4.ryy	4.ryy	4d\	hu-
.	.	.	.	.	16d'/	.	.	.	.	.	.	.
.	.	.	.	.	16d'/	.	.	.	.	.	.	.
.	.	.	.	.	16d'/	.	.	.	.	.	.	.
8A\)	.	8A/)	.	.	16d'/	.	8cc#X\	.	.	.	8c#X\	-ic
.	.	.	.	.	16d'/JJ	.	.	.	.	.	.	.
=2	=2	=2	=2	=2	=2	=2	=2	=2	=2	=2	=2	=2
.	.	(8qqA/	.	.	.	.	8qqcc#/	.	.	.	8qqc#/	.
(4G\	4.ryy	4G/	4.ryy	.	16d/LL	.	(4b\	4.ryy	4.ryy	4.ryy	4B\	er-
.	.	.	.	.	16d/	.	.	.	.	.	.	.
.	.	.	.	.	16d/	.	.	.	.	.	.	.
.	.	.	.	.	16d/	.	.	.	.	.	.	.
8F#\)	.	8F#/)	.	.	16d/	.	8a\)	.	.	.	8A\	-go
.	.	.	.	.	16d/JJ	.	.	.	.	.	.	.
=3	=3	=3	=3	=3	=3	=3	=3	=3	=3	=3	=3	=3
(4G\	4.ryy	4g\	4.ryy	.	16d/LL	.	(4b\	4.ryy	4.ryy	4.ryy	(4B\	cor-
.	.	.	.	.	16d/	.	.	.	.	.	.	.
.	.	.	.	.	16d/	.	.	.	.	.	.	.
.	.	.	.	.	16d/	.	.	.	.	.	.	.
8F#\)	.	8f#\	.	.	16d/	.	8a\)	.	.	.	8A\)	-de
.	.	.	.	.	16d/JJ	.	.	.	.	.	.	.
=4	=4	=4	=4	=4	=4	=4	=4	=4	=4	=4	=4	=4
.	.	8qqf#/	.	.	.	.	8qqa/	.	.	.	8qqA/	.
(4E\	4.ryy	4e\	4.ryy	.	16d/LL	.	(4g\	4.ryy	4.ryy	4.ryy	(4G\	pi-
.	.	.	.	.	16d/	.	.	.	.	.	.	.
.	.	.	.	.	16d/	.	.	.	.	.	.	.
.	.	.	.	.	16d/	.	.	.	.	.	.	.
8D\)	.	8d\	.	.	16d/	.	8f#\)	.	.	.	8F#\)	-o
.	.	.	.	.	16d/JJ	.	.	.	.	.	.	.
=5	=5	=5	=5	=5	=5	=5	=5	=5	=5	=5	=5	=5
8GG/L	4.ryy	8G/L	4.ryy	.	8B/L	.	8e`/L	4.ryy	4.ryy	4.ryy	8E`\L	can-
8GG/	.	8G/	.	.	8B/	.	8e`/	.	.	.	8E`\	.
8GG/J	.	8G/J	.	.	8B/J	.	8e`/J	.	.	.	8E`\J	-te
=6	=6	=6	=6	=6	=6	=6	=6	=6	=6	=6	=6	=6
4GG/	4.ryy	4G/	4.ryy	.	4B/	.	4e/	4.ryy	4.ryy	4.ryy	8E\L	/can-
.	.	.	.	.	.	.	.	.	.	.	(16G\L	.
.	.	.	.	.	.	.	.	.	.	.	16F#\)	.
8FF#/	.	8F#/	.	.	8r	.	8r	.	.	.	(16B\	.
.	.	.	.	.	.	.	.	.	.	.	16A\JJ)	.
=7	=7	=7	=7	=7	=7	=7	=7	=7	=7	=7	=7	=7
16FF#/LL	4.ryy	16F#/LL	4.ryy	.	16f#/LL	.	16a/LL	4.ryy	4.ryy	4.ryy	(16A\LL	-te/-
16GG/JJ	.	16G/JJ	.	.	16e/JJ	.	16g/JJ	.	.	.	16G\JJ)	.
8AA/L	.	8A/L	.	.	8d/L	.	8f#/L	.	.	.	8F#\L	-mus
8AA/J	.	8A/J	.	.	8c#X/J	.	8e/J	.	.	.	8E\J	.
=8	=8	=8	=8	=8	=8	=8	=8	=8	=8	=8	=8	=8
4BB/	4.ryy	4B/	4.ryy	.	4B/	.	4e/	4.ryy	4.ryy	4.ryy	8D\L	/can-
.	.	.	.	.	.	.	.	.	.	.	(16G\L	.
.	.	.	.	.	.	.	.	.	.	.	16F#\)	.
8r	.	8r	.	.	8r	.	8r	.	.	.	(16B\	.
.	.	.	.	.	.	.	.	.	.	.	16A\JJ)	.
=9	=9	=9	=9	=9	=9	=9	=9	=9	=9	=9	=9	=9
16F#\LL	4.ryy	16f#\LL	4.ryy	.	16f#/LL	.	16a/LL	4.ryy	4.ryy	4.ryy	16A\LL	-te-
16G\JJ	.	16g\JJ	.	.	16e/JJ	.	16g/JJ	.	.	.	16G\JJ	.
!	!LO:TX:t=P:problem:mixed beam	!	!LO:TX:t=P:problem:mixed beam	!	!	!	!	!	!	!	!	!
8A\L	.	8a\L	.	.	8d/L	.	8f#/L	.	.	.	8F#\L	.
8AA\J	.	8A\J	.	.	8c#X/J	.	8e/J	.	.	.	8E\J	.
=10	=10	=10	=10	=10	=10	=10	=10	=10	=10	=10	=10	=10
4D\	4.ryy	4d\	4.ryy	.	16d/LL	.	16d`/LL	4.ryy	4.ryy	4.ryy	4D\	-mus/
.	.	.	.	.	16d/	.	16f#`/	.	.	.	.	.
.	.	.	.	.	16e/	.	16g`/	.	.	.	.	.
.	.	.	.	.	16f#/	.	16a`/	.	.	.	.	.
8AA\	.	8A\	.	.	16g/	.	16b`/	.	.	.	8r	.
.	.	.	.	.	16e/JJ	.	16cc#`/JJ	.	.	.	.	.
=11	=11	=11	=11	=11	=11	=11	=11	=11	=11	=11	=11	=11
4D\	4.ryy	4A\	4.ryy	.	4f#/	.	16dd\LL	4.ryy	4.ryy	4.ryy	16D`\LL	e-
.	.	.	.	.	.	.	16ff#\	.	.	.	(32F#\L	-am
.	.	.	.	.	.	.	.	.	.	.	32A\JJJ)	.
.	.	.	.	.	.	.	16ee\	.	.	.	(8d\L	lau-
.	.	.	.	.	.	.	16dd\	.	.	.	.	.
8d\	.	8A\	.	.	8r	.	16cc#\	.	.	.	8f#\J)	.
.	.	.	.	.	.	.	16b\JJ	.	.	.	.	.
=12	=12	=12	=12	=12	=12	=12	=12	=12	=12	=12	=12	=12
!	!	!	!	!	!	!	!	!LO:TX:t=P:problem:zapis niewyraźny	!	!	!	!
4c#X\	4.ryy	8A/L	4.ryy	.	16r	.	8ee\L	4.ryy	4.ryy	4.ryy	16e\LL	-de-
.	.	.	.	.	16A`/LL	.	.	.	.	.	16c#X\J	.
.	.	8A/J	.	.	(16G#X/	.	8cc#\J	.	.	.	8A\J	-mus
.	.	.	.	.	16A/	.	.	.	.	.	.	.
8C#/	.	8r	.	.	16B/	.	8a/	.	.	.	8r	.
.	.	.	.	.	16A/JJ)	.	.	.	.	.	.	.
=13	=13	=13	=13	=13	=13	=13	=13	=13	=13	=13	=13	=13
4BB/	4.ryy	4f#\	4.ryy	.	4d/	.	16r	4.ryy	4.ryy	4.ryy	16BB`/LL	/e-
.	.	.	.	.	.	.	16dd\LL	.	.	.	(32D/L	-am
.	.	.	.	.	.	.	.	.	.	.	32F#/JJJ)	.
.	.	.	.	.	.	.	16cc#X\	.	.	.	8B\L	lau-
.	.	.	.	.	.	.	16b\	.	.	.	.	.
8B\	.	8f#\	.	.	8r	.	16a\	.	.	.	8d\J	.
.	.	.	.	.	.	.	16g\JJ	.	.	.	.	.
=14	=14	=14	=14	=14	=14	=14	=14	=14	=14	=14	=14	=14
4A\	4.ryy	8f#\L	4.ryy	.	16r	.	16cc#X\LL	4.ryy	4.ryy	4.ryy	16c#\LL	-de-
.	.	.	.	.	16f#`/LL	.	16a\JJ	.	.	.	16A\J	.
.	.	8f#\J	.	.	(16e/	.	8f#/	.	.	.	8F#\J	-mus
.	.	.	.	.	16f#/	.	.	.	.	.	.	.
8AA/	.	8r	.	.	16g/	.	8r	.	.	.	8r	.
.	.	.	.	.	16f#/JJ)	.	.	.	.	.	.	.
=15	=15	=15	=15	=15	=15	=15	=15	=15	=15	=15	=15	=15
!!linebreak:original
4GG/	4.ryy	4d\	4.ryy	.	4d/	.	16r	4.ryy	4.ryy	4.ryy	16GG`/LL	e-
.	.	.	.	.	.	.	16b\LL	.	.	.	(32BB/L	-am
.	.	.	.	.	.	.	.	.	.	.	32D/JJJ)	.
.	.	.	.	.	.	.	16a\	.	.	.	8G\L	lau-
.	.	.	.	.	.	.	16g\	.	.	.	.	.
8G\	.	8d\	.	.	8r	.	16f#\	.	.	.	8B\J	.
.	.	.	.	.	.	.	16e\JJ	.	.	.	.	.
=16	=16	=16	=16	=16	=16	=16	=16	=16	=16	=16	=16	=16
4F#\	4.ryy	8d\L	4.ryy	.	16r	.	16a/LL	4.ryy	4.ryy	4.ryy	(16A\LL	-de-
.	.	.	.	.	16d`/LL	.	16f#/JJ	.	.	.	16F#\J)	.
!	!	!	!	!	!	!	!	!LO:TX:t=P:problem:mixed beam	!	!	!	!
.	.	8d\J	.	.	(16c#/	.	8d/L	.	.	.	8D`\J	-mus/
.	.	.	.	.	16d/	.	.	.	.	.	.	.
8FF#/	.	8r	.	.	16e/	.	8dd/J	.	.	.	8r	.
.	.	.	.	.	16d/JJ)	.	.	.	.	.	.	.
=17	=17	=17	=17	=17	=17	=17	=17	=17	=17	=17	=17	=17
8r	4.ryy	8r	4.ryy	.	8r	.	8r	4.ryy	4.ryy	4.ryy	(32d\LLL	e-
.	.	.	.	.	.	.	.	.	.	.	32c#\	.
.	.	.	.	.	.	.	.	.	.	.	32B\	.
.	.	.	.	.	.	.	.	.	.	.	32A\JJJ)	.
8E\L	.	8A/L	.	.	8g/L	.	8cc#X\	.	.	.	8G\	-am
8D\J	.	8A/J	.	.	8f#/J	.	8dd\	.	.	.	8F#\	lau-
=18	=18	=18	=18	=18	=18	=18	=18	=18	=18	=18	=18	=18
!	!LO:TX:t=P:problem:mixed beam	!	!	!	!	!	!	!	!	!	!	!
8A\L	4.ryy	8A/L	4.ryy	.	8d/L	.	8f#/L	4.ryy	4.ryy	4.ryy	8F#\L	-de-
8AA\	.	8A/J	.	.	8c#/J	.	8e/J	.	.	.	8E\J	-mus
8AA\J	.	8r	.	.	8r	.	8r	.	.	.	8r	.
=19	=19	=19	=19	=19	=19	=19	=19	=19	=19	=19	=19	=19
8C#X/L	4.ryy	8c#X\L	4.ryy	.	8e/L	.	4g/	4.ryy	4.ryy	4.ryy	4G\	hu-
8BB/	.	8B\	.	.	8d/	.	.	.	.	.	.	.
8AA#X/J	.	8A#X\J	.	.	8c#X/J	.	8g/	.	.	.	8G\	-ic
=20	=20	=20	=20	=20	=20	=20	=20	=20	=20	=20	=20	=20
8BB/L	4.ryy	8B\L	4.ryy	.	8d/L	.	8f#/L	4.ryy	4.ryy	4.ryy	8F#\L	er-
8C#/	.	8c#\	.	.	8e/	.	8a#X/	.	.	.	8E\	.
8D/J	.	8d\J	.	.	8f#/J	.	8b/J	.	.	.	8D\J	-go
=21	=21	=21	=21	=21	=21	=21	=21	=21	=21	=21	=21	=21
!	!LO:TX:t=P:problem:mixed beam	!	!LO:TX:t=P:problem:mixed beam	!	!	!	!	!	!	!	!	!
8E/L	4.ryy	8e/L	4.ryy	.	8g/L	.	16cc#X\LL	4.ryy	4.ryy	4.ryy	16C#X\LL	cor-
.	.	.	.	.	.	.	16ee\JJ	.	.	.	16E\JJ	.
8F#/	.	8f#/	.	.	8b/	.	8dd\L	.	.	.	8D\L	-de
8FF#/J	.	8F#/J	.	.	8a#X/J	.	8cc#\J	.	.	.	8C#\J	.
=22	=22	=22	=22	=22	=22	=22	=22	=22	=22	=22	=22	=22
!	!LO:TX:t=P:problem:mixed beam	!	!LO:TX:t=P:problem:mixed beam	!	!	!	!	!LO:TX:t=P:problem:mixed beam	!	!	!LO:TX:t=P:problem:mixed beam	!
8BB\L	4.ryy	8B\L	4.ryy	.	8b/L	.	8b\L	4.ryy	4.ryy	4.ryy	8BB\L	pi-
8B\	.	8b\	.	.	8b/	.	8bb\	.	.	.	8B\J	.
8D\J	.	8d\J	.	.	8d/J	.	8d\J	.	.	.	8D\	-o
=23	=23	=23	=23	=23	=23	=23	=23	=23	=23	=23	=23	=23
16E`\LL	4.ryy	16e\LL	4.ryy	.	16e/LL	.	16e/LL	4.ryy	4.ryy	4.ryy	16E\LL	can-
16D`\JJ	.	16d\JJ	.	.	16d/JJ	.	16d/JJ	.	.	.	16D\JJ	.
8C#X`\L	.	8c#X\L	.	.	8c#X/L	.	8c#X/L	.	.	.	8C#X\	.
8F#`\J	.	8f#\J	.	.	8f#/J	.	8f#/J	.	.	.	8F#\	.
=24	=24	=24	=24	=24	=24	=24	=24	=24	=24	=24	=24	=24
8G`\L	4.ryy	8g\L	4.ryy	.	8g/L	.	8g/L	4.ryy	4.ryy	4.ryy	8G\L	-te-
8B`\J	.	8b\J	.	.	8b/J	.	8b/J	.	.	.	8B\J	-mus
16r	.	16r	.	.	16r	.	16r	.	.	.	16r	.
16D\	.	16d\	.	.	16d/	.	16d/	.	.	.	16D\	e-
=25	=25	=25	=25	=25	=25	=25	=25	=25	=25	=25	=25	=25
16E\LL	4.ryy	16e\LL	4.ryy	.	16e/LL	.	16e/LL	4.ryy	4.ryy	4.ryy	16E\LL	-am
16D\JJ	.	16d\JJ	.	.	16d/JJ	.	16d/JJ	.	.	.	16D\JJ	.
8C#X\L	.	8c#\L	.	.	8c#X/L	.	8c#X/L	.	.	.	8C#/	.
8F#\J	.	8f#\J	.	.	8f#/J	.	8f#/J	.	.	.	8F#\	lau-
=26	=26	=26	=26	=26	=26	=26	=26	=26	=26	=26	=26	=26
8G\L	4.ryy	8g\L	4.ryy	.	8g/L	.	8g/L	4.ryy	4.ryy	4.ryy	8G\	-de-
8B\J	.	8b\J	.	.	8b/J	.	8b/J	.	.	.	8B\	-mus
16r	.	16r	.	.	16r	.	16r	.	.	.	16r	.
16D\	.	16d\	.	.	16d/	.	16d/	.	.	.	16D\	Lau-
=27	=27	=27	=27	=27	=27	=27	=27	=27	=27	=27	=27	=27
16E\LL	4.ryy	16e\LL	4.ryy	.	16e/LL	.	16e/LL	4.ryy	4.ryy	4.ryy	16E\LL	-de-
16D\JJ	.	16d\JJ	.	.	16d/JJ	.	16d/J	.	.	.	16D\JJ	.
8C#X\	.	8c#\L	.	.	8c#X/L	.	8c#X/	.	.	.	8C#/	.
8F#\	.	8f#\J	.	.	8f#/J	.	8f#/J	.	.	.	8F#\	.
=28	=28	=28	=28	=28	=28	=28	=28	=28	=28	=28	=28	=28
4BB/	4.ryy	4B/	4.ryy	.	4B/	.	4B/	4.ryy	4.ryy	4.ryy	4BB/	-mus
!	!LO:TX:a:t=Aria da capo	!	!LO:TX:a:t=Aria Da capo	!	!LO:TX:a:t=Aria da capo	!	!	!LO:TX:a:t=Aria da capo	!	!	!LO:TX:a:t=Aria da Capo	!
8r	.	8r	.	.	8r	.	8r	.	.	.	8r	.
==	==	==	==	==	==	==	==	==	==	==	==	==
*-	*-	*-	*-	*-	*-	*-	*-	*-	*-	*-	*-	*-
!!!system-decoration: [(s1,s2,s3)][({(s4,s5)}s6{(s7,s8)})]{(s9,s10)}
!!!ENC: Andrzej Gręziak
!!!END: 2020-10-06
